findly-builder/apps/searchassist/src/assets/icons/faq/likes.svg

<svg width="14" height="14" viewBox="0 0 14 14" fill="none" xmlns="http://www.w3.org/2000/svg">
<path d="M13.8057 7.58333C13.8057 7.133 13.6334 6.727 13.3578 6.41667C13.6334 6.10633 13.8057 5.70033 13.8057 5.25C13.8057 4.28517 13.0328 3.5 12.0831 3.5H7.54821L7.96966 2.24C8.09828 1.79083 8.04775 1.31833 7.82611 0.908835C7.60448 0.499335 7.2393 0.200668 6.79833 0.0700011C5.98873 -0.164499 5.17109 0.191335 4.57854 1.12L2.4598 4.66667H0V14H2.72737V13.9708C2.7733 13.9837 2.81924 14 2.87091 14H10.9347C11.8844 14 12.6573 13.2148 12.6573 12.25C12.6573 11.9863 12.5953 11.739 12.4919 11.5138C13.0948 11.2408 13.5186 10.6295 13.5186 9.91667C13.5186 9.53983 13.398 9.19217 13.1982 8.90633C13.5668 8.5855 13.8057 8.11417 13.8057 7.58333ZM1.14837 5.83333H2.29673V12.8333H1.14837V5.83333ZM10.9347 12.8333H3.4451V5.2675L5.5512 1.74183C5.91753 1.16667 6.20692 1.16667 6.31601 1.16667C6.36999 1.16667 6.42511 1.17483 6.47793 1.19117C6.7811 1.27983 6.9568 1.60417 6.87527 1.89L6.20347 3.89667C6.14261 4.07283 6.17132 4.27 6.27926 4.42283C6.38721 4.57567 6.56061 4.66667 6.74665 4.66667H12.0831C12.4001 4.66667 12.6573 4.92917 12.6573 5.25C12.6573 5.57083 12.4001 5.83333 12.0831 5.83333H10.3606V7H12.0831C12.4001 7 12.6573 7.2625 12.6573 7.58333C12.6573 7.90417 12.4001 8.16667 12.0831 8.16667H10.3606V9.33333H11.796C12.113 9.33333 12.3702 9.59583 12.3702 9.91667C12.3702 10.2375 12.113 10.5 11.796 10.5H10.3606V11.6667H10.9347C11.2517 11.6667 11.5089 11.9292 11.5089 12.25C11.5089 12.5708 11.2517 12.8333 10.9347 12.8333Z" fill="#9AA0A6"/>
</svg>

<svg width="14" height="14" fill="none" xmlns="http://www.w3.org/2000/svg"><path d="M13.806 7.583c0-.45-.173-.856-.448-1.166a1.75 1.75 0 0 0 .448-1.167c0-.965-.773-1.75-1.723-1.75H7.548l.422-1.26c.128-.45.078-.922-.144-1.331A1.72 1.72 0 0 0 6.798.07c-.81-.234-1.627.121-2.22 1.05L2.46 4.667H0V14h2.727v-.03c.046.014.092.03.144.03h8.064c.95 0 1.722-.785 1.722-1.75a1.76 1.76 0 0 0-.165-.736 1.752 1.752 0 0 0 .706-2.608 1.75 1.75 0 0 0 .608-1.323ZM1.148 5.833h1.149v7H1.148v-7Zm9.787 7h-7.49V5.267l2.106-3.525c.367-.575.656-.575.765-.575a.58.58 0 0 1 .56.723l-.673 2.007a.585.585 0 0 0 .076.526.572.572 0 0 0 .468.244h5.336a.58.58 0 0 1 .574.583.58.58 0 0 1-.574.583h-1.722V7h1.722a.58.58 0 0 1 .574.583.58.58 0 0 1-.574.584h-1.722v1.166h1.435a.58.58 0 0 1 .574.584.58.58 0 0 1-.574.583h-1.435v1.167h.574a.58.58 0 0 1 .574.583.58.58 0 0 1-.574.583Z" fill="#9AA0A6"/></svg>
